!!!!SEGMENT: pl-wn--mus-iii-601--001-001_janiewicz-feliks--ie-trio-allegro-moderato.krn
!!!cenid: 17xx:2387
!!!COM: Janiewicz, Feliks
!!!COM-rismID: pe30011012
!!!CDT: 1762-1848
!!!CNT: Polish
!!!OPR: Ie Trio
!!!OTL: Allegro moderato
!!!OMV: 001
!!!PDT:
!!!AGN:
!!!YEC: Copyright 2022 Narodowy Instytut Fryderyka Chopina (https://polishscores.org)
!!!YEM: License CC-BY-4.0 (https://creativecommons.org/licenses/by/4.0)
!!!SMS-siglum: PL-Wn
!!!SMS-shelfmark: Mus.III.601
!!!SMS-shelfwork: 001-001 M
!!!SMS-variant:
!!!SMS-altvar:
!!!NIFC-rismSourceID: 990069598
!!!NIFC-rismChildID: 990069598
!!!NIFC-islandoraID: none
!!!URL-pdf-islandora:
!!!URL-scan: https://polona2.pl/item/six-trios-pour-deux-violons-basse,MTAxMDA3MzY2/0/#item @EN{Scan on Polona} @PL{Skany w portalu Polona}
!!!IIIF: https://polona2.pl/iiif/item/MTAxMDA3MzY2/manifest.json
!!!ONB-nifc: UWAGA: źródło zawiera 6 Trio na 2 skrzypiec i wiolonczelę. Violino Primo (od skanu 3), Violino Secondo (od skanu 37), Basso (od skanu 61). Basso to partia wiolonczeli. Części Ie Trio: 1. Allegro moderato, 2. Andantino la Pollacca, 3. Finale/Allegro
!!!AIN: 1 cbass 2 violn
!!!key: C
**kern	**dynam	**kern	**dynam	**kern	**dynam
*part3	*	*part2	*	*part1	*
*staff3	*	*staff2	*	*staff1	*
*I"BASSO	*	*I"VIOLINO SECONDO	*	*I"VIOLINO PRIMO	*
*mI"Violoncello	*	*mI"Violino II	*	*mI"Violino I	*
*I'b	*	*I'vl 2	*	*I'vl 1	*
*mI'vlc	*	*	*	*	*
*ICstr	*	*ICstr	*	*ICstr	*
*Icbass	*	*Ivioln	*	*Ivioln	*
*clefF4	*	*clefG2	*	*clefG2	*
*k[]	*	*k[]	*	*k[]	*
*C:	*	*C:	*	*C:	*
*M4/4	*	*M4/4	*	*M4/4	*
*met(c)	*	*met(c)	*	*met(c)	*
=1	=1	=1	=1	=1	=1
!!!OMD:
!!!OMD-mod: Allegro moderato
*xywh-#62:577,520,3457,541	*	*xywh-#38:504,459,3470,633	*	*xywh-#4:500,498,3458,528	*
!	!	!	!	!LO:TX:a:B:t=All(egr)o Moderato:mod=	!
!	!LO:MO:mod=!null:null	!	!LO:MO:mod=!null:null	!LO:MO:mod=!null:null	!LO:MO:mod=!null:null
!LO:TX:a:B:t=All(egr)o Moderato:mod=	!LO:DY:t=F	!LO:TX:a:B:t=All(egr)o Moderato:mod=	!LO:DY:t=F	!LO:TX:a:B:t=Ie.\nTRIO.	!LO:DY:t=F
[1C [1CC	f	2G/	f	8c`/L	f
.	.	.	.	8d`/	.
.	.	.	.	8e`/	.
.	.	.	.	8f`/J	.
.	.	(4e/	.	4.g/	.
.	.	4G/)	.	.	.
.	.	.	.	8e/	.
=2	=2	=2	=2	=2	=2
1C_ 1CC_	.	4A/	.	(<8f/L	.
.	.	.	.	8e/	.
.	.	(4f/	.	8f/)	.
.	.	.	.	8a`/J	.
.	.	4e/)	.	4.g/	.
.	.	4r	.	.	.
.	.	.	.	8e/	.
=3	=3	=3	=3	=3	=3
1C] 1CC]	.	2G/	.	8c/L	.
.	.	.	.	8d/	.
.	.	.	.	8e/	.
.	.	.	.	8f/J	.
.	.	(4e/	.	4.g/	.
.	.	4G/)	.	.	.
.	.	.	.	8e/	.
=4	=4	=4	=4	=4	=4
8.BB/L	.	8.G/L	.	8.dT</L	.
16C/Jk	.	16A/Jk	.	16c/K	.
4D\	.	8G/L	.	8.Bt</	.
.	.	16r	.	.	.
.	.	16c/Jk	.	16A/Jk	.
4GG;</	.	4d 4B;/	.	4G;/	.
4r	.	4r	.	4r	.
=5	=5	=5	=5	=5	=5
4r	.	4r	.	(8f/L	p
.	.	.	.	8e/	.
(4BB/	p	(4d/	p	8f/)	.
.	.	.	.	8a`/J	.
4C/)	.	4e/)	.	4.g/	.
4r	.	4r	.	.	.
.	.	.	.	8e/	.
!	!	!	!	!LO:LB:g=original	!
=6	=6	=6	=6	=6	=6
*	*	*	*	*xywh-#4:497,913,3471,395	*
4r	.	4r	.	(8d/L	.
.	.	.	.	8c/	.
(4GG#X/	.	(4B/	.	8d/	.
.	.	.	.	8f/J)	.
4AA/)	.	4c/)	.	4.e/	.
4GGn`/	.	4r	.	.	.
.	.	.	.	8c/	.
!	!	!LO:LB:g=original	!	!	!
=7	=7	=7	=7	=7	=7
*	*	*xywh-#38:538,959,3435,419	*	*	*
4FF#X/	.	8A`/L	.	[2cc\	.
.	.	(8d/	.	.	.
4AA/	.	8e-X/	.	.	.
.	.	8d/J)	.	.	.
4D\	.	4d/	.	8cc\L]	.
.	.	.	.	(8a\	.
4r	.	8r	.	8dd\	.
.	.	8c/	.	8f#X\J)	.
=8	=8	=8	=8	=8	=8
4GG/	.	8B`/L	.	(2g/	.
.	.	(8d/	.	.	.
4BB/	.	8en/	.	.	.
.	.	8d/J)	.	.	.
4D\	.	4d/	.	8g/L	.
.	.	.	.	8b/)	.
4r	.	8r	.	(8b/	.
.	.	8B/	.	8dd/J)	.
=9	=9	=9	=9	=9	=9
4FF#X/	.	8A`/L	.	[2cc\	.
.	.	(8d/	.	.	.
4AA/	.	8e-X/	.	.	.
.	.	8d/J)	.	.	.
4D\	.	4d/	.	8cc\L]	.
.	.	.	.	(8a\	.
4r	.	8r	.	8dd\	.
.	.	8c/	.	8f#X\J)	.
=10	=10	=10	=10	=10	=10
4GG/	.	4d 4B/	.	(16g/LL	.
.	.	.	.	16a/)	.
.	.	.	.	16g`/	.
.	.	.	.	16f#X`/JJ	.
!	!	!	!	!	!LO:MO:mod=!null:null
!	!	!	!	!	!LO:HP:b:t=cres
4r	.	4r	.	8g`/L	<
.	.	.	.	16dd`/L	.
.	.	.	.	16b`/JJ	.
4G\	.	4en 4c/	.	16g/LL	.
.	.	.	.	16a/	.
.	.	.	.	16g/	.
.	.	.	.	16f#/JJ	.
4r	.	4r	.	8g\L	.
.	.	.	.	16ee\L	.
.	.	.	.	16cc\JJ	.
!LO:LB:g=original	!	!	!	!	!
=11	=11	=11	=11	=11	=11
*xywh-#62:587,976,3441,380	*	*	*	*	*
4GG/	.	4d 4B/	.	16g/LL	.
.	.	.	.	16a/	.
.	.	.	.	16g/	.
.	.	.	.	16f#X/JJ	.
4r	.	4r	.	8g\L	.
!	!	!	!	!	!LO:MO:mod=!null:null
!	!	!	!	!	!LO:DY:t=F
.	.	.	.	16ffn\L	f
.	.	.	.	16ee\JJ	.
2r	.	2r	.	16dd\LL	.
.	.	.	.	16cc\	.
.	.	.	.	16b\	.
.	.	.	.	16a\JJ	.
.	.	.	.	16g/LL	.
.	.	.	.	16f#/	.
.	.	.	.	16e/	.
.	.	.	.	16d/JJ	.
!	!	!LO:LB:g=original	!	!LO:LB:g=original	!
=12	=12	=12	=12	=12	=12
*	*	*xywh-#38:565,1310,3424,392	*	*xywh-#4:487,1192,3480,373	*
!	!LO:MO:mod=!null:null	!	!LO:MO:mod=!null:null	!	!
!	!LO:DY:t=F	!	!LO:DY:t=F	!	!
8CC/L	f	8c/L	f	4c/	.
8C/	.	8d/	.	.	.
8C/	.	8e/	.	4r	.
8C/J	.	8f/J	.	.	.
8CC/L	.	4.g/	.	16cc\LL	.
.	.	.	.	16dd\	.
8C/	.	.	.	16ee\	.
.	.	.	.	16ff\JJ	.
8C/	.	.	.	16gg\LL	.
.	.	.	.	16aa\	.
8C/J	.	8e/	.	16bb\	.
.	.	.	.	16ccc\JJ	.
=13	=13	=13	=13	=13	=13
8CC/L	.	(8f/L	.	8aa\L	.
8C/	.	8e/	.	8gg\	.
8C/	.	8f/)	.	8aa\	.
8C/J	.	8a`/J	.	8ccc\J	.
8CC/L	.	4.g/	.	16gg\LL	.
.	.	.	.	16ff\	.
8C/	.	.	.	16ee\	.
.	.	.	.	16ff\JJ	.
8C/	.	.	.	8gg\L	.
8C/J	.	8e/	.	8ccc\J	.
=14	=14	=14	=14	=14	=14
8CC/L	.	8c/L	.	4gg\	.
8C/	.	8d/	.	.	.
8C/	.	8e/	.	4r	.
8C/J	.	8f/J	.	.	.
8CC/L	.	4.g/	.	16cc\LL	.
.	.	.	.	16dd\	.
8C/	.	.	.	16ee\	.
.	.	.	.	16ff\JJ	.
8C/	.	.	.	16gg\LL	.
.	.	.	.	16aa\	.
8C/J	.	8e/	.	16bb\	.
.	.	.	.	16ccc\JJ	.
=15	=15	=15	=15	=15	=15
8CC/L	.	8d/L	.	4aa\	.
8C/	.	8e/	.	.	.
8C/	.	8f#X/	.	4r	.
8C/J	.	8g/J	.	.	.
4C/	.	4.a/	.	16dd\LL	.
.	.	.	.	16ee\	.
.	.	.	.	16ff#X\	.
.	.	.	.	16gg\JJ	.
4r	.	.	.	16aa\LL	.
.	.	.	.	16bb\	.
.	.	8f#/	.	16ccc\	.
.	.	.	.	16ddd\JJ	.
=16	=16	=16	=16	=16	=16
8BB/L	.	8g/L	.	4bb\	.
8C/	.	8a/	.	.	.
8BB/	.	8b/	.	4r	.
8AA/J	.	8cc/J	.	.	.
4GG/	.	4.dd\	.	16gg\LL	.
.	.	.	.	16aa\	.
.	.	.	.	16bb\	.
.	.	.	.	16ccc\JJ	.
4r	.	.	.	16ddd\LL	.
.	.	.	.	16eee\	.
.	.	8b\	.	16fff#X\	.
.	.	.	.	16ggg\JJ	.
!	!	!LO:LB:g=original	!	!	!
=17	=17	=17	=17	=17	=17
*	*	*xywh-#38:569,1638,3401,335	*	*	*
4C/	.	8a\L	.	4eee\	.
.	.	8b\	.	.	.
4r	.	8cc\	.	4r	.
.	.	8dd\J	.	.	.
4C/	.	4ee\	.	16aa\LL	.
.	.	.	.	16bb\	.
.	.	.	.	16gg\	.
.	.	.	.	16aa\JJ	.
4C#X/	.	8aL 8g/	.	16ff#X\LL	.
.	.	.	.	16gg\	.
.	.	8aJ 8g/	.	16ee\	.
.	.	.	.	16ff#\JJ	.
!	!	!	!	!LO:LB:g=original	!
=18	=18	=18	=18	=18	=18
*	*	*	*	*xywh-#4:481,1496,3477,386	*
*tremolo	*	*	*	*	*
8D\L	.	8f#X/	.	8dd\L	.
8D\	.	4a/	.	8ee\	.
8D\	.	.	.	8ff#X\	.
8D\J	.	8g/	.	8gg\J	.
8D\L	.	8f#/L	.	4.aa\	.
8D\	.	8a/	.	.	.
8D\	.	8f#/	.	.	.
8D\J	.	8a/J	.	8ff#\	.
=19	=19	=19	=19	=19	=19
8C#X\L	.	8e/	.	8gg\L	.
8D\	.	4g/	.	(16bb\L	.
.	.	.	.	16aa\JJ)	.
8E\	.	.	.	(16aa\LL	.
.	.	.	.	16gg\)	.
8F#X\J	.	8a/	.	(16gg\	.
.	.	.	.	16ff\JJ)	.
4.G\	.	8e/L	.	(16ff\LL	.
.	.	.	.	16ee\)	.
.	.	8a/	.	(16ee\	.
.	.	.	.	16dd\JJ)	.
.	.	8g/	.	(16cc#X\LL	.
.	.	.	.	16a\)	.
8E\	.	8a/J	.	16b'\	.
.	.	.	.	16cc#'\JJ	.
=20	=20	=20	=20	=20	=20
8D\L	.	8f#X/	.	8dd\L	.
8D\	.	4a/	.	8ee\	.
8D\	.	.	.	8ff#X\	.
8D\J	.	8g/	.	8gg\J	.
8D\L	.	8f#/L	.	4.aa\	.
8D\	.	8a/	.	.	.
8D\	.	8f#/	.	.	.
8D\J	.	8a/J	.	8ff#\	.
*Xtremolo	*	*	*	*	*
!LO:LB:g=original	!	!	!	!	!
=21	=21	=21	=21	=21	=21
*xywh-#62:580,1252,3473,354	*	*	*	*	*
8C#X\L	.	8e/	.	8gg\L	.
8D\	.	4g/	.	16bb\L	.
.	.	.	.	16aa\JJ	.
8E\	.	.	.	16aa\LL	.
.	.	.	.	16gg\	.
8F#X\J	.	8a/	.	16gg\	.
.	.	.	.	16ff#X\JJ	.
4.G\	.	8e/L	.	16ff#\LL	.
.	.	.	.	16ee\	.
.	.	8a/	.	16ee\	.
.	.	.	.	16dd\JJ	.
.	.	8g/	.	16cc#X\LL	.
.	.	.	.	16a\	.
8E\	.	8a/J	.	16b\	.
.	.	.	.	16cc#\JJ	.
!	!	!LO:LB:g=original	!	!	!
=22	=22	=22	=22	=22	=22
*	*	*xywh-#38:561,1966,3393,408	*	*	*
8D\L	.	4f#X/	.	4dd\	.
8E\	.	.	.	.	.
8F#X\	.	4r	.	4r	.
8G\J	.	.	.	.	.
4.A\	.	8d/L	.	2r	.
.	.	8e/	.	.	.
.	.	8f#/	.	.	.
8G\	.	8g/J	.	.	.
!	!	!	!	!LO:LB:g=original	!
=23	=23	=23	=23	=23	=23
*	*	*	*	*xywh-#4:468,1832,3524,376	*
8F#X\L	.	4.a/	.	8dd\L	.
8G\	.	.	.	8ee\	.
8A\	.	.	.	8ff#X\	.
8B\J	.	8g/	.	8gg\J	.
4.cn\	.	8f#X/L	.	4.aa\	.
.	.	8g/	.	.	.
.	.	8a/	.	.	.
8B\	.	8b/J	.	8gg\	.
=24	=24	=24	=24	=24	=24
8A\L	.	4.cc\	.	8ff#X\L	.
8B\	.	.	.	8gg\	.
8c\	.	.	.	8aa\	.
8d\J	.	8b\	.	8bb\J	.
4.e\	.	8a\L	.	4.ccc\	.
.	.	8b\	.	.	.
.	.	8cc\	.	.	.
8d\	.	8dd\J	.	8bb\	.
=25	=25	=25	=25	=25	=25
8c\L	>	8ee\L	>	8aa'\L	>
8B\	.	8dd\	.	8gg'\	.
8A\	.	8cc\	.	8ff#X'\	.
8G\J	.	8b\J	.	8ee'\J	.
8F#X\L	.	8a/L	.	8dd\L	.
8E\	.	8g/	.	8cc\	.
8D\	.	8f#X/	.	8b\	.
8C\J	]	8e/J	]	8a\J	]
=26	=26	=26	=26	=26	=26
!	!	!	!	!	!LO:DY:t= :mod=%s
!	!	!	!	!LO:MO:mod=!LO&colon;TX&colon;a&colon;i&colon;t=Dolce	!LO:MO:mod=!LO&colon;DY&colon;ed=brack
!	!	!	!	!LO:TX:a:i:t=dol	!null
4BB/	p	2d/	p	8g\L	p
.	.	.	.	8a\	.
2GG/	.	.	.	8b\	.
.	.	.	.	8cc\J	.
.	.	4B/	.	4.dd\	.
4G\	.	4d/	.	.	.
.	.	.	.	8b\	.
!	!	!LO:LB:g=original	!	!	!
=27	=27	=27	=27	=27	=27
*	*	*xywh-#38:554,2298,3447,388	*	*	*
[1G [1GG	.	4.e/	.	(8cc\L	.
.	.	.	.	8b\	.
.	.	.	.	8cc\)	.
.	.	(8c/	.	8ee`\J	.
.	.	4B/)	.	4.dd\	.
.	.	4r	.	.	.
.	.	.	.	8b\	.
=28	=28	=28	=28	=28	=28
1G_ 1GG_	.	2d/	.	8g\L	.
.	.	.	.	8a\	.
.	.	.	.	8b\	.
.	.	.	.	8cc\J	.
.	.	(4B/	.	4.dd\	.
.	.	4d/)	.	.	.
.	.	.	.	8b\	.
=29	=29	=29	=29	=29	=29
2G_ 2GG/_	.	4.e/	.	(8gg\L	.
.	.	.	.	8ff#X\	.
.	.	.	.	8gg\)	.
.	.	8c/	.	8ee`\J	.
4G] 4GG;</]	.	4B;/	.	4.dd;\	.
4r	.	4r	.	.	.
.	.	.	.	(8dd#X\	.
!	!	!	!	!LO:LB:g=original	!
=30	=30	=30	=30	=30	=30
*	*	*	*	*xywh-#4:459,2114,3502,373	*
4C/	.	8r	.	8ee\L)	.
.	.	8g/L	.	8dd#X\	.
(4c\	.	8g/	.	8ee\	.
.	.	8g/J	.	8gg\J	.
4B\)	.	8r	.	4.ddn\	.
.	.	8g/L	.	.	.
4r	.	8g/	.	.	.
.	.	8g/J	.	(8dd#X\	.
!LO:LB:g=original	!	!	!	!	!
=31	=31	=31	=31	=31	=31
*xywh-#62:613,1544,3457,380	*	*	*	*	*
4C/	.	8r	.	8ee\L)	.
.	.	8g/L	.	8dd#X\	.
(4c\	.	8g/	.	8ee\	.
.	.	8g/J	.	8gg\J	.
4B\	.	8r	.	2ddn\	.
.	.	8g/L	.	.	.
4B-X\)	.	8g/	.	.	.
.	.	8g/J	.	.	.
=32	=32	=32	=32	=32	=32
4A\	.	8e/L	.	[2cc#X\	.
.	.	16g/L	.	.	.
!	!	!	!LO:MO:mod=!null:null	!	!
!	!	!	!LO:DY:t=rinf	!	!
.	.	16f#X/JJ	rfz	.	.
!	!LO:MO:mod=!null:null	!	!	!	!
!	!LO:DY:t=rinf	!	!	!	!
4AA/	rfz	8e/L	.	.	.
.	.	8g/J	.	.	.
4A\	.	4e/	.	8cc#\L]	.
.	.	.	.	(16aa\L	.
.	.	.	.	16gg\JJ	.
4r	.	4r	.	16ff#X\LL	.
.	.	.	.	16ee\	.
.	.	.	.	16dd\	.
.	.	.	.	16cc#\JJ)	.
!	!	!LO:LB:g=original	!	!	!
=33	=33	=33	=33	=33	=33
*	*	*xywh-#38:538,2599,3443,453	*	*	*
4D\	.	(8f#X/L	p	(2dd\	.
.	.	8A/	.	.	.
4r	.	8f#/	.	.	.
.	.	8A/J)	.	.	.
2r	.	(8f#/L	.	8dd\L	.
.	.	8A/	.	8ff#X\)	.
.	.	8f#/	.	(8ff#\	.
.	.	8A/J)	.	8aa\J)	.
=34	=34	=34	=34	=34	=34
(2AA/	.	(8e/L	.	(2gg\	.
.	.	8c#X/	.	.	.
.	.	8e/	.	.	.
.	.	8c#/J)	.	.	.
8AA/L	.	(8e/L	.	8gg\L	.
8C#X/)	.	8A/	.	8ee\)	.
8C#/	.	8g/	.	(8ee\	.
8E/J	.	8A/J)	.	8cc#X\J)	.
=35	=35	=35	=35	=35	=35
4D\	.	(8f#X/L	.	2dd\	.
.	.	8A/	.	.	.
4r	.	8f#/	.	.	.
.	.	8A/J)	.	.	.
2r	.	(8f#/L	.	(8dd\L	.
.	.	8A/	.	8ff#X\)	.
.	.	8f#/	.	(8ff#\	.
.	.	8A/J)	.	8aa\J)	.
=36	=36	=36	=36	=36	=36
(2AA/	.	(8e/L	.	2gg\	.
.	.	8c#X/	.	.	.
.	.	8e/	.	.	.
.	.	8c#/J)	.	.	.
8AA/L	.	(8e/L	.	(8gg\L	.
8C#X/)	.	8A/	.	8ee\)	.
(8C#/	.	8g/	.	(8ee\	.
8E/J)	.	8A/J)	.	8cc#X\J)	.
!	!	!LO:LB:g=original	!	!	!
=37	=37	=37	=37	=37	=37
*	*	*xywh-#38:531,2950,3413,419	*	*	*
8D\L	.	4f#X 4A/	.	(1dd	.
8F#X\	.	.	.	.	.
8A\	.	4r	.	.	.
8F#\J	.	.	.	.	.
8D/L	.	2r	.	.	.
8E-X/	.	.	.	.	.
8Cn/	.	.	.	.	.
8AA/J	.	.	.	.	.
=38	=38	=38	=38	=38	=38
4BB-X/	p	4.fn/	.	8dd\L	.
.	.	.	.	8cc\	.
8D/L	.	.	.	8dd\	.
8BB-/J	.	8d/	.	8ffn\J)	.
2FFn/	.	(8c/L	.	(4.ee-X\	.
.	.	8B/	.	.	.
.	.	8c/)	.	.	.
.	.	8e-X`/J	.	8cc\)	.
!	!	!	!	!LO:LB:g=original	!
=39	=39	=39	=39	=39	=39
*	*	*	*	*xywh-#4:446,2411,3493,370	*
4BB-X/	.	8d/	.	(8dd\L	.
.	.	4f/	.	8cc\	.
8D/L	.	.	.	8dd\)	.
8BB-/J	.	8d/	.	8ff`\J	.
4.F\	.	(8c/L	.	(4.ee-X\	.
.	.	8B/	.	.	.
.	.	8c/)	.	.	.
8F#X\	.	8e-X`/J	.	8cc\)	.
=40	=40	=40	=40	=40	=40
4G\	.	4.d/	.	8b-X\L	.
.	.	.	.	8a\	.
8B-X\L	.	.	.	8b-\	.
8G\J	.	8B-X/	.	8dd\J	.
2D\	.	(8A/L	.	4.cc\	.
.	.	8G/	.	.	.
.	.	8A/	.	.	.
.	.	8c/J)	.	8a\	.
!LO:LB:g=original	!	!	!	!	!
=41	=41	=41	=41	=41	=41
*xywh-#62:593,1856,3401,390	*	*	*	*	*
4.G\	.	8B-X/L	.	8g/L	.
.	.	8d/	.	8a/	.
.	.	8g/	.	8b-X/	.
8E-X\	.	8a/J	.	8cc/J	.
4D\	.	8g/L	.	4b-\	.
.	.	8g/	.	.	.
.	.	.	.	8qqb-/	.
4D\	.	8f#X/	.	4at</	.
.	.	8f#/J	.	.	.
!	!	!LO:LB:g=original	!	!	!
=42	=42	=42	=42	=42	=42
*	*	*xywh-#38:493,3259,3451,419	*	*	*
!	!LO:MO:mod=!null:null	!	!LO:MO:mod=!null:null	!	!
!	!LO:DY:t=F	!	!LO:DY:t=F	!	!
4GG/	f	8g/	f	(16g/LL	.
.	.	.	.	16f#X/	.
.	.	4d 4B-X/	.	16g/)	.
.	.	.	.	16a`/JJ	.
4G\	.	.	.	(16g/LL	.
.	.	.	.	16f#/	.
.	.	4d 4B-/	.	16g/)	.
.	.	.	.	16a`/JJ	.
4G\	.	.	.	(16g/LL	.
.	.	.	.	16f#/	.
.	.	4d 4B-/	.	16g/)	.
.	.	.	.	16a`/JJ	.
4G\	.	.	.	(16g/LL	.
.	.	.	.	16f#/	.
.	.	8d 8B-/	.	16g/)	.
.	.	.	.	16a`/JJ	.
!	!	!	!	!LO:LB:g=original	!
=43	=43	=43	=43	=43	=43
*	*	*	*	*xywh-#4:490,2712,3436,402	*
4G\	.	4d 4B-X/	.	(16g\LL	.
.	.	.	.	16b-X\)	.
.	.	.	.	16dd`\	.
.	.	.	.	16gg`\JJ	.
4r	.	4r	.	(16bb-yX\LL	.
.	.	.	.	16gg\)	.
.	.	.	.	16dd`\	.
.	.	.	.	16b-`\JJ	.
4G 4GG/	.	4d 4B-/	.	16g\LL	.
.	.	.	.	16b-\	.
.	.	.	.	16dd\	.
.	.	.	.	16gg\JJ	.
4r	.	4r	.	16bb-\LL	.
.	.	.	.	16gg\	.
.	.	.	.	16dd\	.
.	.	.	.	16b-\JJ	.
=44	=44	=44	=44	=44	=44
!	!	!	!	!	!LO:MO:mod=!null:null
!	!	!	!	!	!LO:HP:b:t=cres
4EE-X/	.	8g 8B-X/	.	(16e-X/LL	<
.	.	.	.	16d/	.
.	.	4gg 4b-X\	.	16e-/)	.
.	.	.	.	16f`/JJ	.
4E-yX\	.	.	.	(16e-/LL	.
.	.	.	.	16d/	.
.	.	4gg 4b-\	.	16e-/)	.
.	.	.	.	16f`/JJ	.
4E-\	.	.	.	(16e-/LL	.
.	.	.	.	16d/	.
.	.	4gg 4b-\	.	16e-/)	.
.	.	.	.	16f`/JJ	.
4E-\	.	.	.	(16e-/LL	.
.	.	.	.	16d/	.
.	.	8gg 8b-\	.	16e-/)	.
.	.	.	.	16f`/JJ	.
=45	=45	=45	=45	=45	=45
4E-X\	.	4gg 4b-X\	.	16e-X\LL	.
.	.	.	.	16g\	.
.	.	.	.	16b-X\	.
.	.	.	.	16ee-yX\JJ	.
4r	.	4r	.	16gg\LL	.
.	.	.	.	16ee-\	.
.	.	.	.	16b-\	.
.	.	.	.	16g\JJ	.
4EE-yX/	.	4g 4B-yX/	.	16e-\LL	.
.	.	.	.	16g\	.
.	.	.	.	16b-\	.
.	.	.	.	16ee-\JJ	.
4r	.	4r	.	16gg\LL	.
.	.	.	.	16ee-\	.
.	.	.	.	16b-\	.
.	.	.	.	16g\JJ	.
!	!	!	!	!LO:LB:g=original	!
=46	=46	=46	=46	=46	=46
*	*	*	*	*xywh-#4:471,3045,3486,421	*
!	!	!	!	!	!LO:MO:mod=!null:null
!	!	!	!	!	!LO:DY:t=F
4En\	.	4gg 4b-X\	.	16c#X/LL	f
.	.	.	.	16en/	.
.	.	.	.	16g/	.
.	.	.	.	16b-X/JJ	.
4r	.	4r	.	16cc#X\LL	.
.	.	.	.	16ee\	.
.	.	.	.	16gg\	.
.	.	.	.	16ee\JJ	.
2r	.	2r	.	16bb-yX\LL	.
.	.	.	.	16gg\	.
.	.	.	.	16ee\	.
.	.	.	.	16cc#\JJ	.
.	.	.	.	16b-/LL	.
.	.	.	.	16g/	.
.	.	.	.	16e/	.
.	.	.	.	16c#/JJ	.
=47	=47	=47	=47	=47	=47
4E\	.	4g 4B-X/	.	16c#X/LL	.
.	.	.	.	16e/	.
.	.	.	.	16g/	.
.	.	.	.	16b-X/JJ	.
4r	.	4r	.	16cc#yX\LL	.
.	.	.	.	16ee\	.
.	.	.	.	16gg\	.
.	.	.	.	16ee\JJ	.
2r	.	2r	.	16bb-yX\LL	.
.	.	.	.	16gg\	.
.	.	.	.	16ee\	.
.	.	.	.	16cc#\JJ	.
.	.	.	.	16b-/LL	.
.	.	.	.	16g/	.
.	.	.	.	16e/	.
.	.	.	.	16c#/JJ	.
=48	=48	=48	=48	=48	=48
4F#X\	.	4a 4d/	.	16cn/LL	.
.	.	.	.	16d/	.
.	.	.	.	16f#X/	.
.	.	.	.	16a/JJ	.
4r	.	4r	.	16cc\LL	.
.	.	.	.	16dd\	.
.	.	.	.	16ff#yX\	.
.	.	.	.	16aa\JJ	.
4F#\	.	4A/	.	16ccc\LL	.
.	.	.	.	16aa\	.
.	.	.	.	16ff#\	.
.	.	.	.	16dd\JJ	.
4F#\	.	4A/	.	16cc/LL	.
.	.	.	.	16a/	.
.	.	.	.	16f#/	.
.	.	.	.	16d/JJ	.
!	!	!LO:LB:g=original	!	!	!
=49	=49	=49	=49	=49	=49
*	*	*xywh-#38:493,3556,3561,449	*	*	*
1F#X;	.	1A;	.	1d 1c;	.
!	!	!	!	!LO:LB:g=original	!
=50	=50	=50	=50	=50	=50
*	*	*	*	*xywh-#4:462,3308,3505,414	*
!	!	!LO:MO:mod=!LO&colon;TX&colon;a&colon;i&colon;t=Dolce	!	!	!
!	!	!LO:TX:b:i:t=dol	!	!	!
4GG/	p	(8bn\L	.	4.dd\	.
.	.	8a\	.	.	.
8BBn/L	.	8b\)	.	.	.
8GG/J	.	8dd`\J	.	[8gg\	.
2D\	.	4.cc\	.	16gg\LL]	.
.	.	.	.	(16ff#X\	.
.	.	.	.	16aa\	.
.	.	.	.	16ff#\JJ	.
.	.	.	.	16ccc\LL	.
.	.	.	.	16aa\)	.
.	.	8a/	.	16ff#`\	.
.	.	.	.	16cc`\JJ	.
=51	=51	=51	=51	=51	=51
4G\	.	(8b\L	.	8b\	.
.	.	8a\	.	4dd\	.
8B\L	.	8b\	.	.	.
8G\J	.	8dd\J)	.	[8gg\	.
2D\	.	4.cc\	.	16gg\LL]	.
.	.	.	.	(16ff#X\	.
.	.	.	.	16aa\	.
.	.	.	.	16ff#\JJ	.
.	.	.	.	16ccc\LL)	.
.	.	.	.	16aa`\	.
.	.	8a/	.	16ff#`\	.
.	.	.	.	16cc`\JJ	.
=52	=52	=52	=52	=52	=52
4G\	.	8g/	.	8b\	.
.	.	4ee\	.	4gg\	.
4C/	.	.	.	.	.
.	.	16cc\LL	.	16ee\LL	.
.	.	16a\JJ	.	16cc\JJ	.
4D\	.	8g/L	.	8b\	.
.	.	8g/	.	4dd\	.
4D\	.	8f#X/	.	.	.
.	.	8f#/J	.	16cc\LL	.
.	.	.	.	16a\JJ	.
=53	=53	=53	=53	=53	=53
!	!LO:MO:mod=!null:null	!	!LO:MO:mod=!null:null	!	!
!	!LO:DY:t=F	!	!LO:DY:t=F	!	!
4GG/	f	4g/	f	(16g/LL	.
.	.	.	.	16f#X/	.
.	.	.	.	16g/)	.
.	.	.	.	16a`/JJ	.
4G\	.	4d 4B/	.	(16g/LL	.
.	.	.	.	16f#/	.
.	.	.	.	16g/)	.
.	.	.	.	16a`/JJ	.
4G\	.	4d 4B/	.	(16g/LL	.
.	.	.	.	16f#/	.
.	.	.	.	16g/)	.
.	.	.	.	16a`/JJ	.
4G\	.	4d 4B/	.	(16g/LL	.
.	.	.	.	16f#/	.
.	.	.	.	16g/)	.
.	.	.	.	16a`/JJ	.
!LO:LB:g=original	!	!	!	!LO:LB:g=original	!
=54	=54	=54	=54	=54	=54
*xywh-#62:603,2191,3408,348	*	*	*	*xywh-#4:452,3615,3480,424	*
4G\	.	4d 4B/	.	16g\LL	.
.	.	.	.	16b\	.
.	.	.	.	16dd\	.
.	.	.	.	16gg\JJ	.
4r	.	4r	.	16bb\LL	.
.	.	.	.	16gg\	.
.	.	.	.	16dd\	.
.	.	.	.	16b\JJ	.
4GG/	.	4d 4B/	.	16g\LL	.
.	.	.	.	16b\	.
.	.	.	.	16dd\	.
.	.	.	.	16gg\JJ	.
4r	.	4r	.	16bb\LL	.
.	.	.	.	16gg\	.
.	.	.	.	16dd\	.
.	.	.	.	16b\JJ	.
!	!	!LO:LB:g=original	!	!	!
=55	=55	=55	=55	=55	=55
*	*	*xywh-#38:481,3892,3508,434	*	*	*
4EE/	.	4gg 4b\	.	(16e/LL	.
.	.	.	.	16d#X/	.
.	.	.	.	16e/)	.
.	.	.	.	16f#X`/JJ	.
4E\	.	4gg 4b\	.	(16e/LL	.
.	.	.	.	16d#/	.
.	.	.	.	16e/)	.
.	.	.	.	16f#`/JJ	.
4E\	.	4gg 4b\	.	(16e/LL	.
.	.	.	.	16d#/	.
.	.	.	.	16e/)	.
.	.	.	.	16f#`/JJ	.
4E\	.	4gg 4b\	.	(16e/LL	.
.	.	.	.	16d#/	.
.	.	.	.	16e/)	.
.	.	.	.	16f#`/JJ	.
=56	=56	=56	=56	=56	=56
4E\	.	4gg 4b\	.	16e\LL	.
.	.	.	.	16g\	.
.	.	.	.	16b\	.
.	.	.	.	16ee\JJ	.
4r	.	4r	.	16gg\LL	.
.	.	.	.	16ee\	.
.	.	.	.	16b\	.
.	.	.	.	16g\JJ	.
4EE/	.	4g 4B/	.	16e\LL	.
.	.	.	.	16g\	.
.	.	.	.	16b\	.
.	.	.	.	16ee\JJ	.
4r	.	4r	.	16gg\LL	.
.	.	.	.	16ee\	.
.	.	.	.	16b\	.
.	.	.	.	16g\JJ	.
!	!	!	!	!LO:LB:g=original	!
=57	=57	=57	=57	=57	=57
*	*	*^	*	*	*
*	*	*	*xywh-#38:481,3892,3508,434	*	*xywh-#4:459,3938,3464,392	*
4CC/	.	4e/	1G	.	16c/LL	.
.	.	.	.	.	16B/	.
.	.	.	.	.	16c/	.
.	.	.	.	.	16d/JJ	.
4C/	.	4e/	.	.	16c/LL	.
.	.	.	.	.	16B/	.
.	.	.	.	.	16c/	.
.	.	.	.	.	16d/JJ	.
4C/	.	4e/	.	.	16c/LL	.
.	.	.	.	.	16B/	.
.	.	.	.	.	16c/	.
.	.	.	.	.	16d/JJ	.
4C/	.	4e/	.	.	16c/LL	.
.	.	.	.	.	16B/	.
.	.	.	.	.	16c/	.
.	.	.	.	.	16d/JJ	.
*	*	*v	*v	*	*	*
=58	=58	=58	=58	=58	=58
4C/	.	4e 4G/	.	16c/LL	.
.	.	.	.	16e/	.
.	.	.	.	16g/	.
.	.	.	.	16cc/JJ	.
4r	.	4r	.	16ee\LL	.
.	.	.	.	16gg\	.
.	.	.	.	16ccc\	.
.	.	.	.	16gg\JJ	.
2r	.	2r	.	16ee\LL	.
.	.	.	.	16ccc\	.
.	.	.	.	16gg\	.
.	.	.	.	16ee\JJ	.
.	.	.	.	16cc\LL	.
.	.	.	.	16gg\	.
.	.	.	.	16ee\	.
.	.	.	.	16cc\JJ	.
=59	=59	=59	=59	=59	=59
4C 4CC/	.	4e 4G/	.	16c/LL	.
.	.	.	.	16e/	.
.	.	.	.	16g/	.
.	.	.	.	16cc/JJ	.
4r	.	4r	.	16ee\LL	.
.	.	.	.	16gg\	.
.	.	.	.	16ccc\	.
.	.	.	.	16gg\JJ	.
2r	.	2r	.	16ee\LL	.
.	.	.	.	16ccc\	.
.	.	.	.	16gg\	.
.	.	.	.	16ee\JJ	.
.	.	.	.	16cc\LL	.
.	.	.	.	16gg\	.
.	.	.	.	16ee\	.
.	.	.	.	16cc\JJ	.
!	!	!	!	!LO:LB:g=original	!
=60	=60	=60	=60	=60	=60
*	*	*	*	*xywh-#4:484,4261,3420,399	*
4D\	.	4f 4G/	.	8b\L	.
.	.	.	.	16aa\L	.
.	.	.	.	16gg\JJ	.
4r	.	4r	.	16ff\LL	.
.	.	.	.	16ee\	.
.	.	.	.	16dd\	.
.	.	.	.	16cc\JJ	.
4BB/	.	4d 4G/	.	8b\L	.
.	.	.	.	16aa\L	.
.	.	.	.	16gg\JJ	.
4r	.	4r	.	16ff\LL	.
.	.	.	.	16ee\	.
.	.	.	.	16dd\	.
.	.	.	.	16cc\JJ	.
=61	=61	=61	=61	=61	=61
4GG/	.	4d 4G/	.	8b\L	.
.	.	.	.	16aa\L	.
.	.	.	.	16gg\JJ	.
4r	.	4r	.	16ff\LL	.
.	.	.	.	16ee\	.
.	.	.	.	16dd\	.
.	.	.	.	16cc\JJ	.
2r	.	2r	.	16b/LL	.
.	.	.	.	16a/	.
.	.	.	.	16g/	.
.	.	.	.	16f/JJ	.
.	.	.	.	16e/LL	.
.	.	.	.	16d/	.
.	.	.	.	16c/	.
.	.	.	.	16B/JJ	.
=62	=62	=62	=62	=62	=62
!	!LO:DY:t= :mod=%s	!	!	!	!
!	!LO:MO:mod=!LO&colon;DY&colon;ed=	!	!	!	!
!	!null	!	!	!	!
4CC/	p	8ee-X 8g\	p	16c/LL	p
.	.	.	.	16B/	.
.	.	4ee- 4g\	.	16c/	.
.	.	.	.	16d/JJ	.
!	!LO:MO:mod=.	!	!	!	!
4C/	p	.	.	16c/LL	.
.	.	.	.	16B/	.
.	.	4ee- 4g\	.	16c/	.
.	.	.	.	16d/JJ	.
4C/	.	.	.	16c/LL	.
.	.	.	.	16B/	.
.	.	4ee- 4g\	.	16c/	.
.	.	.	.	16d/JJ	.
4C/	.	.	.	16c/LL	.
.	.	.	.	16B/	.
.	.	8ee- 8g\	.	16c/	.
.	.	.	.	16d/JJ	.
!	!	!LO:LB:g=original	!	!LO:LB:g=original	!
=63	=63	=63	=63	=63	=63
*	*	*xywh-#38:474,4197,3496,488	*	*xywh-#4:487,4559,3448,446	*
4C/	.	4ee-X 4g\	.	16c/LL	.
.	.	.	.	16e-X/	.
.	.	.	.	16g/	.
.	.	.	.	16cc/JJ	.
4r	.	4r	.	16ee-yX/LL	.
.	.	.	.	16cc/	.
.	.	.	.	16g/	.
.	.	.	.	16e-/JJ	.
4C/	.	4e-X 4G/	.	16c/LL	.
.	.	.	.	16e-/	.
.	.	.	.	16g/	.
.	.	.	.	16cc/JJ	.
4r	.	4r	.	16ee-/LL	.
.	.	.	.	16cc/	.
.	.	.	.	16g/	.
.	.	.	.	16e-/JJ	.
=64	=64	=64	=64	=64	=64
*	*	*^	*	*	*
*	*	*	*xywh-#38:474,4197,3496,488	*	*	*
!	!	!	!	!LO:DY:t= :mod=%s	!	!LO:DY:t= :mod=%s
!	!LO:MO:mod=!null:null	!	!	!LO:MO:mod=!LO&colon;DY&colon;ed=brack	!	!LO:MO:mod=!LO&colon;DY&colon;ed=brack
!	!LO:HP:b:t=cres	!	!	!null	!	!null
4AA-X/	<	8cc/	1e-X	<	16A-X/LL	<
.	.	.	.	.	16G/	.
.	.	4cc/	.	.	16A-/	.
.	.	.	.	.	16B-X/JJ	.
4AA-/	.	.	.	.	16A-/LL	.
.	.	.	.	.	16G/	.
.	.	4cc/	.	.	16A-/	.
.	.	.	.	.	16B-/JJ	.
4AA-/	.	.	.	.	16A-/LL	.
.	.	.	.	.	16G/	.
.	.	4cc/	.	.	16A-/	.
.	.	.	.	.	16B-/JJ	.
4AA-/	.	.	.	.	16A-/LL	.
.	.	.	.	.	16G/	.
.	.	8cc/	.	.	16A-/	.
.	.	.	.	.	16B-/JJ	.
*	*	*v	*v	*	*	*
=65	=65	=65	=65	=65	=65
4AA-yX/	.	4cc 4e-X/	.	16A-X/LL	.
.	.	.	.	16c/	.
.	.	.	.	16e-X/	.
.	.	.	.	16a-yX/JJ	.
4r	.	4r	.	16cc/LL	.
.	.	.	.	16a-/	.
.	.	.	.	16e-/	.
.	.	.	.	16c/JJ	.
4AA-/	.	4e- 4c/	.	16A-/LL	.
.	.	.	.	16c/	.
.	.	.	.	16e-/	.
.	.	.	.	16a-/JJ	.
4r	.	4r	.	16cc/LL	.
.	.	.	.	16a-/	.
.	.	.	.	16e-/	.
.	.	.	.	16c/JJ	.
!	!	!	!	!LO:LB:g=original	!
=66	=66	=66	=66	=66	=66
*	*	*	*	*^	*
*xywh-#62:600,2480,3398,364	*	*	*	*xywh-#5:435,686,3432,498	*xywh-#5:435,686,3432,498	*
!	!LO:MO:mod=!null:null	!	!	!	!	!
!	!LO:DY:t=F	!	!	!	!	!
4BB-X/	f	4dd-X 4e-X/	.	2e-X/	16G\LL	.
.	.	.	.	.	16B-X\	.
.	.	.	.	.	16d-X\	.
.	.	.	.	.	16B-\JJ	.
4r	.	4r	.	.	16d-\LL	.
.	.	.	.	.	16B-\	.
.	.	.	.	.	16d-\	.
.	.	.	.	.	16B-\JJ	.
!	!	!	!LO:MO:mod=!null:null	!	!	!
!	!	!	!LO:DY:t=F	!	!	!
8r	.	(16G/LL	f	8e-/L	8G\L	.
.	.	16B-X/)	.	.	.	.
8GG/L	.	(16d-X/	.	8dd-X/	8e-\	.
.	.	16B-/JJ)	.	.	.	.
8GG/	.	(16d-/LL	.	8dd-/	8e-\	.
.	.	16B-/)	.	.	.	.
8GG/J	.	(16d-/	.	8dd-/J	8e-\J	.
.	.	16B-/JJ)	.	.	.	.
!	!	!LO:LB:g=original	!	!	!	!
=67	=67	=67	=67	=67	=67	=67
*	*	*xywh-#38:474,4551,3512,499	*	*	*	*
4GG/	.	4d-X/	.	2e-X/	16G\LL	.
.	.	.	.	.	16B-X\	.
.	.	.	.	.	16d-X\	.
.	.	.	.	.	16B-\JJ	.
4r	.	4r	.	.	16d-\LL	.
.	.	.	.	.	16B-\	.
.	.	.	.	.	16d-\	.
.	.	.	.	.	16B-\JJ	.
8r	.	(16G/LL	.	8e-/L	8G\L	.
.	.	16B-X/)	.	.	.	.
!	!	!	!	!	!	!
8GG/L	.	(16d-X/	.	8gg/	8dd-X\	.
.	.	16B-/JJ)	.	.	.	.
8EE-X/	.	(16d-/LL	.	8gg/	8dd-\	.
.	.	16B-/)	.	.	.	.
8E-X\J	.	(16d-/	.	8gg/J	8dd-\J	.
.	.	16B-/JJ)	.	.	.	.
*	*	*	*	*v	*v	*
=68	=68	=68	=68	=68	=68
(16AA-X/LL	.	4c/	.	[2aa-X 2cc\	.
16C/	.	.	.	.	.
16E-X/	.	.	.	.	.
16C/JJ)	.	.	.	.	.
(16E-/LL	.	4r	.	.	.
16C/)	.	.	.	.	.
(16E-/	.	.	.	.	.
16C/JJ)	.	.	.	.	.
4AA-/	.	(16c/LL	.	8aa-]L 8cc\	.
.	.	16e-X/	.	.	.
.	.	16a-X/	.	8aa- 8cc'\	.
.	.	16e-/JJ)	.	.	.
4r	.	(16c/LL	.	8aa- 8cc'\	.
.	.	16e-/)	.	.	.
.	.	(16c/	.	8aa-J 8cc'\	.
.	.	16e-/JJ)	.	.	.
=69	=69	=69	=69	=69	=69
(16AA-X/LL	.	4c/	.	[2gg-X 2cc\	.
16C/	.	.	.	.	.
16E-X/	.	.	.	.	.
16C/JJ)	.	.	.	.	.
(16E-/LL	.	4r	.	.	.
16C/)	.	.	.	.	.
(16E-/	.	.	.	.	.
16C/JJ)	.	.	.	.	.
4AA-/	.	(16c/LL	.	8gg-]L 8cc\	.
.	.	16e-X/	.	.	.
.	.	16a-X/	.	8gg- 8cc'\	.
.	.	16e-/JJ)	.	.	.
4r	.	(16c/LL	.	8gg- 8cc'\	.
.	.	16e-/)	.	.	.
.	.	(16c/	.	8gg-J 8cc'\	.
.	.	16e-/JJ)	.	.	.
!	!	!LO:LB:g=original	!	!	!
=70	=70	=70	=70	=70	=70
*	*	*	*	*^	*
*	*	*xywh-#39:272,573,3410,546	*	*	*xywh-#5:435,686,3432,498	*
4D-X\	.	4f/	.	16dd-X\LL	2rcyyyy	.
.	.	.	.	16ff\	.	.
.	.	.	.	16aa-X\	.	.
.	.	.	.	16ff\JJ	.	.
4r	.	4r	.	16aa-\LL	.	.
.	.	.	.	16ff\	.	.
.	.	.	.	16aa-\	.	.
.	.	.	.	16ff\JJ	.	.
8r	.	(16d-X/LL	.	8raayyyy	8dd-\L	.
.	.	16f/	.	.	.	.
8D-\L	.	16a-X/	.	4.ff/	8dd-\	.
.	.	16f/JJ)	.	.	.	.
8D-\	.	(16a-/LL	.	.	8dd-\	.
.	.	16f/)	.	.	.	.
8D-\J	.	(16a-/	.	.	8dd-\J	.
.	.	16f/JJ)	.	.	.	.
!	!	!	!	!	!LO:LB:g=original	!
=71	=71	=71	=71	=71	=71	=71
*	*	*	*	*xywh-#5:435,1052,3413,350	*xywh-#5:435,1052,3413,350	*
4D-X\	.	4d-X/	.	16cc#X\LL	2rcyyyy	.
.	.	.	.	16een\	.	.
.	.	.	.	16gg#X\	.	.
.	.	.	.	16ee\JJ	.	.
4r	.	4r	.	16gg#\LL	.	.
.	.	.	.	16ee\	.	.
.	.	.	.	16gg#\	.	.
.	.	.	.	16ee\JJ	.	.
8r	.	(16c#X/LL	.	8raayyyy	8cc#\L	.
.	.	16en/	.	.	.	.
8C#X/L	.	16g#X/	.	4.ee/	8cc#\	.
.	.	16e/JJ)	.	.	.	.
8C#/	.	(16g#/LL	.	.	8cc#\	.
.	.	16e/)	.	.	.	.
8C#/J	.	(16g#/	.	.	8cc#\J	.
.	.	16e/JJ)	.	.	.	.
*	*	*	*	*v	*v	*
!LO:LB:g=original	!	!	!	!	!
=72	=72	=72	=72	=72	=72
*xywh-#62:594,2792,3391,348	*	*	*	*	*
4AAn/	.	4c#X/	.	16a\LL	.
.	.	.	.	16cc#X\	.
.	.	.	.	16ee\	.
.	.	.	.	16cc#\JJ	.
4A\	.	4c#/	.	16ee\LL	.
.	.	.	.	16cc#\	.
.	.	.	.	16ee\	.
.	.	.	.	16cc#\JJ	.
4r	.	4r	.	16g#X\LL	.
.	.	.	.	16dd\	.
.	.	.	.	16ee\	.
.	.	.	.	16dd\JJ	.
4G#X\	.	4Bn/	.	16ee\LL	.
.	.	.	.	16dd\	.
.	.	.	.	16ee\	.
.	.	.	.	16dd\JJ	.
=73	=73	=73	=73	=73	=73
4A\	.	4c#X/	.	16a\LL	.
.	.	.	.	16cc#X\	.
.	.	.	.	16ee\	.
.	.	.	.	16cc#\JJ	.
4AA/	.	4c#/	.	16ee\LL	.
.	.	.	.	16cc#\	.
.	.	.	.	16ee\	.
.	.	.	.	16cc#\JJ	.
4r	.	4r	.	16a\LL	.
.	.	.	.	16ccn\	.
.	.	.	.	16ee\	.
.	.	.	.	16cc\JJ	.
4AA/	.	4cn/	.	16ee\LL	.
.	.	.	.	16cc\	.
.	.	.	.	16ee\	.
.	.	.	.	16cc\JJ	.
!	!	!LO:LB:g=original	!	!LO:LB:g=original	!
=74	=74	=74	=74	=74	=74
*	*	*xywh-#39:287,1044,3410,410	*	*xywh-#5:426,1314,3400,429	*
4AA/	.	4fn 4c/	.	16fn\LL	.
.	.	.	.	16ccn\	.
.	.	.	.	16aa\	.
.	.	.	.	16cc\JJ	.
4A\	.	4f 4c/	.	16aa\LL	.
.	.	.	.	16cc\	.
.	.	.	.	16aa\	.
.	.	.	.	16cc\JJ	.
4r	.	4r	.	16d#X\LL	.
.	.	.	.	16cc\	.
.	.	.	.	16aa\	.
.	.	.	.	16cc\JJ	.
4D#X\	.	4f#X 4c/	.	16aa\LL	.
.	.	.	.	16cc\	.
.	.	.	.	16aa\	.
.	.	.	.	16cc\JJ	.
=75	=75	=75	=75	=75	=75
4E\	.	4e 4B/	.	(16gg#X\LL	.
.	.	.	.	16ee\)	.
.	.	.	.	(16bb\	.
.	.	.	.	16aa\JJ)	.
4r	.	4r	.	(16aa\LL	.
.	.	.	.	16gg#\)	.
.	.	.	.	(16gg#\	.
.	.	.	.	16ff\JJ)	.
4E\	.	4g#X 4B/	.	(16ff\LL	.
.	.	.	.	16ee\)	.
.	.	.	.	(16bb\	.
.	.	.	.	16aa\JJ)	.
4r	.	4r	.	(16aa\LL	.
.	.	.	.	16gg#\)	.
.	.	.	.	(16gg#\	.
.	.	.	.	16ff\JJ)	.
=76	=76	=76	=76	=76	=76
4E\	.	4b 4g#X/	.	16ff\LL	.
.	.	.	.	16ee\	.
.	.	.	.	16ddd\	.
.	.	.	.	16ccc\JJ	.
4r	.	4r	.	16ccc\LL	.
.	.	.	.	16bb\	.
.	.	.	.	16bb\	.
.	.	.	.	16aa\JJ	.
2r	.	2r	.	16aa\LL	.
.	.	.	.	16gg#X\	.
.	.	.	.	16gg#\	.
.	.	.	.	16ff\JJ	.
.	.	.	.	16ff\LL	.
.	.	.	.	16ee\	.
.	.	.	.	16ee\	.
.	.	.	.	16dd#X\JJ	.
!	!	!	!	!LO:LB:g=original	!
=77	=77	=77	=77	=77	=77
*	*	*	*	*xywh-#5:413,1630,3447,365	*
8AA/L	p	4.c/	p	2.ee\	.
8BB/	.	.	.	.	.
8C/	.	.	.	.	.
8Dn/J	.	8B/	.	.	.
4.E\	.	8A/L	.	.	.
.	.	8B/	.	.	.
.	.	8c/	.	4aa\	.
8C/	.	8e/J	.	.	.
=78	=78	=78	=78	=78	=78
8BB/L	.	4.d/	.	4aa\	.
8C/	.	.	.	.	.
8D/	.	.	.	4gg#X\	.
8E/J	.	8c/	.	.	.
4.F\	.	8B/L	.	(2gg#\	.
.	.	8c/	.	.	.
.	.	8d/	.	.	.
8D\	.	8f/J	.	.	.
=79	=79	=79	=79	=79	=79
8C#X\L	.	4.e/	.	4.ggn\	.
8D\	.	.	.	.	.
8E\	.	.	.	.	.
8F\J	.	8d/	.	8ff\)	.
4.G\	.	8c#X/L	.	8ee\L	.
.	.	8d/	.	8ff\	.
.	.	8e/	.	8gg\	.
8E\	.	8g/J	.	8cc#X\J	.
=80	=80	=80	=80	=80	=80
4.F\	.	4f/	.	8dd\L	.
.	.	.	.	8ee\	.
.	.	2a/	.	8ff\	.
8E\	.	.	.	8gg\J	.
8D\L	.	.	.	(4.aa\	.
8E\	.	.	.	.	.
8F\	.	4dd\	.	.	.
8A\J	.	.	.	8ff\)	.
!LO:LB:g=original	!	!LO:LB:g=original	!	!	!
=81	=81	=81	=81	=81	=81
*xywh-#62:590,3045,3421,469	*	*xywh-#39:261,1355,3429,372	*	*	*
4.G\	.	(4dd\	.	8ee\L	.
.	.	.	.	8ff\	.
.	.	4cc#X\)	.	8gg\	.
8F\	.	.	.	8aa\J	.
8E\L	.	(2cc#\	.	(4.bb-X\	.
8F\	.	.	.	.	.
8G\	.	.	.	.	.
8B-X\J	.	.	.	8gg\)	.
=82	=82	=82	=82	=82	=82
4.A\	.	4.ccn\)	.	8ff#X\L	.
.	.	.	.	8gg\	.
.	.	.	.	8aa\	.
8G\	.	8b-X\	.	8bb-X\J	.
8F#X\L	.	8a/L	.	(4.ccc\	.
8G\	.	8b-/	.	.	.
8A\	.	8cc/	.	.	.
8cn\J	.	8f#X/J	.	8aa\)	.
=83	=83	=83	=83	=83	=83
4B-X\	.	8g/L	.	(4.bb-X\	.
.	.	8a/	.	.	.
2d\	.	8b-X/	.	.	.
.	.	8cc/J	.	8aa\)	.
.	.	4.dd\	.	8gg\L	.
.	.	.	.	8aa\	.
4g\	.	.	.	8bb-\	.
.	.	8b-\	.	8ddd\J	.
!	!	!	!	!LO:LB:g=original	!
=84	=84	=84	=84	=84	=84
*	*	*	*	*xywh-#5:423,1888,3400,413	*
(4g\	.	8a\L	.	4.ccc\	.
.	.	8b-X\	.	.	.
4f#X\)	.	8cc\	.	.	.
.	.	8dd\J	.	8bb-X\	.
(2f#\	.	4.ee-X\	.	8aa\L	.
.	.	.	.	8bb-\	.
.	.	.	.	8ccc\	.
.	.	8cc\	.	8eee-X\J	.
=85	=85	=85	=85	=85	=85
4.fn\)	.	8bn\L	.	4.ddd\	.
.	.	8cc\	.	.	.
.	.	8dd\	.	.	.
8e-X\	.	8ee-X\J	.	8ccc\	.
8d\L	.	4.ff\	.	8bbn\L	.
8e-\	.	.	.	8ccc\	.
8f\	.	.	.	8ddd\	.
8G\J	.	8dd\	.	8bb\J	.
!	!	!LO:LB:g=original	!	!	!
=86	=86	=86	=86	=86	=86
*	*	*xywh-#39:272,1682,3407,425	*	*	*
8c\L	p	4ee-X\	.	4ccc\	.
8d\	.	.	.	.	.
8e-X\	.	4r	.	4r	.
8f\J	.	.	.	.	.
4g\	.	2r	.	8ccc\L	.
.	.	.	.	8ddd\	.
4r	.	.	.	8eee-X\	.
.	.	.	.	8fff\J	.
=87	=87	=87	=87	=87	=87
!LO:MO:mod=!null:null	!	!	!	!	!
!LO:TX:t=1	!	!	!	!	!
1r	.	8cc\L	p	4ggg\	.
.	.	8dd\	.	.	.
.	.	8ee-X\	.	4r	.
.	.	8ff\J	.	.	.
.	.	4gg\	.	2r	.
.	.	4r	.	.	.
=88	=88	=88	=88	=88	=88
!	!	!LO:MO:mod=!LO&colon;TX&colon;a&colon;i&colon;t=Dolce	!	!LO:MO:mod=!LO&colon;TX&colon;a&colon;i&colon;t=Dolce	!
!	!	!LO:TX:b:i:t=dol	!	!null	!
2CC/	p	8en/L	.	8cc\L	.
!	!	!	!	!LO:MO:mod=!null:null	!
!	!	!	!	!LO:TX:a:i:t=dol	!
.	.	8g/	.	8dd\	.
.	.	8cc/	.	8een\	.
.	.	8dd/J	.	8ff\J	.
(8C/L	.	4.ee\	.	4.gg\	.
8BB/	.	.	.	.	.
8C/)	.	.	.	.	.
8CC'/J	.	8cc\	.	8ee\	.
=89	=89	=89	=89	=89	=89
2CC/	.	(8dd\L	.	(8ff\L	.
.	.	8cc#X\	.	8ee\	.
.	.	8dd\)	.	8ff\)	.
.	.	8ff`\J	.	8aa`\J	.
(8C/L	.	4.ee\	.	4.gg\	.
8BB/	.	.	.	.	.
8C/)	.	.	.	.	.
8CC`/J	.	8cc#\	.	8ee\	.
!LO:LB:g=original	!	!	!	!	!
=90	=90	=90	=90	=90	=90
*xywh-#62:587,3347,3424,426	*	*	*	*	*
2C/	.	8e/L	.	8cc\L	.
.	.	8g/	.	8dd\	.
.	.	8cc/	.	8ee\	.
.	.	8dd/J	.	8ff\J	.
8c\L	.	4.ee\	.	4.gg\	.
8B\	.	.	.	.	.
8c\	.	.	.	.	.
8C/J	.	8cc\	.	8ee\	.
!	!	!LO:LB:g=original	!	!LO:LB:g=original	!
=91	=91	=91	=91	=91	=91
*	*	*xywh-#39:303,2013,3376,402	*	*xywh-#5:432,2185,3400,406	*
2CC/	.	(8a/L	.	(8ccc\L	.
.	.	8g#X/	.	8bb\	.
!	!	!	!	!LO:SIC:o=8ccc\:v	!
.	.	8a/)	.	8ccc\)	.
!	!	!	!	!LO:SIC:o=8aa\J):v	!
.	.	8f`/J	.	8aa`\J	.
2C;</	.	2e;/	.	2gg;\	.
=92	=92	=92	=92	=92	=92
2f\	p	8r	.	(8aa\L	.
.	.	8cc'\L	.	8gg#X\	.
.	.	8cc'\	.	8aa\)	.
.	.	8cc'\J	.	8ccc`\J	.
(8e\L	.	8r	.	2ggn\	.
8d#X\	.	8cc'\L	.	.	.
8e\)	.	8cc'\	.	.	.
8e`\J	.	8cc'\J	.	.	.
=93	=93	=93	=93	=93	=93
.	.	.	.	8qqgg#X/	.
2f\	.	8r	.	(8aa\L	.
.	.	8cc\L	.	8gg#\	.
.	.	8cc\	.	8aa\)	.
.	.	8cc\J	.	8ccc`\J	.
(8e\L	.	8r	.	2ggn\	.
8d#X\	.	8cc\L	.	.	.
8e\)	.	8cc\	.	.	.
8e`\J	.	8cc\J	.	.	.
=94	=94	=94	=94	=94	=94
!	!LO:MO:mod=!null:null	!	!	!	!LO:MO:mod=!null:null
!	!LO:DY:t=rinf	!	!	!	!LO:DY:t=rinf
(2d\	rfz	8r	.	[2ff#X\	rfz
.	.	8ccL 8a\	.	.	.
.	.	8cc 8a\	.	.	.
.	.	8ccJ 8a\	.	.	.
4D/)	.	4cc 4a\	.	8ff#\L]	.
.	.	.	.	(16ddd\L	.
.	.	.	.	16ccc\JJ	.
4r	.	4r	.	16bb\LL	.
.	.	.	.	16aa\	.
.	.	.	.	16gg\	.
.	.	.	.	16ff#\JJ)	.
=95	=95	=95	=95	=95	=95
4G\	.	(8b/L	.	(2gg\	.
.	.	8d/	.	.	.
4r	.	8b/	.	.	.
.	.	8d/J)	.	.	.
4GG/	.	(8b/L	.	8gg\L	.
.	.	8d/	.	8bb\)	.
4r	.	8b/	.	(8bb\	.
.	.	8d/J)	.	8ddd\J)	.
!	!	!LO:LB:g=original	!	!	!
=96	=96	=96	=96	=96	=96
*	*	*xywh-#39:291,2339,3392,398	*	*	*
(2D\	.	(8a/L	.	(2ccc\	.
.	.	8f#X/	.	.	.
.	.	8a/	.	.	.
.	.	8f#/J)	.	.	.
8D\L	.	(8a/L	.	8ccc\L	.
8F#X\)	.	8d/	.	8aa\)	.
(8F#\	.	8cc/	.	(8aa\	.
8A\J)	.	8d/J)	.	8ff#X\J)	.
=97	=97	=97	=97	=97	=97
4G\	.	(8b/L	.	(2gg\	.
.	.	8d/	.	.	.
4r	.	8b/	.	.	.
.	.	8d/J)	.	.	.
4GG/	.	(8b/L	.	8gg\L	.
.	.	8d/	.	8bb\)	.
4r	.	8b/	.	(8bb\	.
.	.	8d/J)	.	8ddd\J)	.
!	!	!	!	!LO:LB:g=original	!
=98	=98	=98	=98	=98	=98
*	*	*	*	*xywh-#5:429,2513,3397,388	*
(2D\	.	(8a/L	.	(2ccc\	.
.	.	8d/	.	.	.
.	.	8a/	.	.	.
.	.	8d/J)	.	.	.
8D\L	.	(8a/L	.	8ccc\L	.
8F#X\)	.	8d/	.	8aa\)	.
(8F#\	.	8cc/	.	(8aa\	.
8A\J)	.	8d/J)	.	8ff#X\J)	.
=99	=99	=99	=99	=99	=99
8G\L	.	4b\	.	[1gg	.
8B\	.	.	.	.	.
8d\	.	4r	.	.	.
8B\J	.	.	.	.	.
8G\L	.	2r	.	.	.
8A-X\	.	.	.	.	.
8Fn\	.	.	.	.	.
8D\J	.	.	.	.	.
!LO:LB:g=original	!	!	!	!	!
=100	=100	=100	=100	=100	=100
*xywh-#62:594,3666,3411,394	*	*	*	*	*
4E-X\	.	4.b-X/	p	(8gg\L]	.
.	.	.	.	8ffn\	.
8G\L	.	.	.	8gg\	.
8E-\J	.	8g/	.	8bb-X\J)	.
2BB-X/	.	(8fn/L	.	(4.aa-X\	.
.	.	8e/	.	.	.
.	.	8f/)	.	.	.
.	.	8a-X`/J	.	8ff\)	.
!	!	!LO:LB:g=original	!	!	!
=101	=101	=101	=101	=101	=101
*	*	*xywh-#39:299,2655,3395,459	*	*	*
4E-X\	.	8g/	.	(8gg\L	.
.	.	4b-X\	.	8ff\	.
8G\L	.	.	.	8gg\	.
8E-\J	.	8g/	.	8bb-X\J)	.
4.BB-X/	.	(8f/L	.	(4.aa-X\	.
.	.	8e/	.	.	.
.	.	8f/)	.	.	.
8BBn/	.	8a-X`/J	.	8ff\)	.
=102	=102	=102	=102	=102	=102
4C/	.	4.g/	.	(8ee-X\L	.
.	.	.	.	8dd\	.
8E-X\L	.	.	.	8ee-\	.
8C\J	.	8e-X/	.	8gg\J)	.
2GG/	.	(8d/L	.	(4.ff\	.
.	.	8c/	.	.	.
.	.	8d/)	.	.	.
.	.	8f`/J	.	8dd\)	.
=103	=103	=103	=103	=103	=103
4.C/	.	8e-X/L	.	8cc\L	.
.	.	8g/	.	8dd\	.
.	.	8cc/	.	8ee-X\	.
8AA-X/	.	8dd/J	.	8ff\J	.
4GG/	.	8cc\L	.	4ee-\	.
.	.	8cc\	.	.	.
.	.	.	.	8qqee-/	.
4G\	.	8bn\	.	4ddt\	.
.	.	8b\J	.	.	.
!	!	!	!	!LO:LB:g=original	!
=104	=104	=104	=104	=104	=104
*	*	*	*	*xywh-#5:451,2812,3356,403	*
!	!LO:MO:mod=!null:null	!	!	!	!
!	!LO:DY:t=F	!	!	!	!
4C/	f	8cc\	.	(16cc\LL	.
.	.	.	.	16bn\	.
!	!	!	!LO:MO:mod=!null:null	!	!
!	!	!	!LO:DY:t=F	!	!
.	.	4e-X 4G/	f	16cc\)	.
.	.	.	.	16dd`\JJ	.
4C/	.	.	.	(16cc\LL	.
.	.	.	.	16b\	.
.	.	4e- 4G/	.	16cc\)	.
.	.	.	.	16dd`\JJ	.
4C/	.	.	.	(16cc\LL	.
.	.	.	.	16b\	.
.	.	4e- 4G/	.	16cc\)	.
.	.	.	.	16dd`\JJ	.
4C/	.	.	.	(16cc\LL	.
.	.	.	.	16b\	.
.	.	8e- 8G/	.	16cc\)	.
.	.	.	.	16dd`\JJ	.
!	!	!LO:LB:g=original	!	!	!
=105	=105	=105	=105	=105	=105
*	*	*xywh-#39:322,3019,3392,448	*	*	*
4C/	.	4e-X 4G/	.	16cc\LL	.
.	.	.	.	16ee-X\	.
.	.	.	.	16gg\	.
.	.	.	.	16ccc\JJ	.
4r	.	4r	.	16eee-yX\LL	.
.	.	.	.	16ccc\	.
.	.	.	.	16gg\	.
.	.	.	.	16ee-\JJ	.
4C/	.	4e- 4G/	.	16cc\LL	.
.	.	.	.	16ee-\	.
.	.	.	.	16gg\	.
.	.	.	.	16ccc\JJ	.
4r	.	4r	.	16eee-\LL	.
.	.	.	.	16ccc\	.
.	.	.	.	16gg\	.
.	.	.	.	16ee-\JJ	.
=106	=106	=106	=106	=106	=106
!	!	!	!	!	!LO:MO:mod=!null:null
!	!	!	!	!	!LO:HP:b:t=cres
4AA-X/	.	8cc 8e-X/	.	16a-X/LL	<
.	.	.	.	16g/	.
.	.	4cc 4e-/	.	16a-/	.
.	.	.	.	16b-X/JJ	.
4A-X\	.	.	.	16a-/LL	.
.	.	.	.	16g/	.
.	.	4cc 4e-/	.	16a-/	.
.	.	.	.	16b-/JJ	.
4A-\	.	.	.	16a-/LL	.
.	.	.	.	16g/	.
.	.	4cc 4e-/	.	16a-/	.
.	.	.	.	16b-/JJ	.
4A-\	.	.	.	16a-/LL	.
.	.	.	.	16g/	.
.	.	8cc 8e-/	.	16a-/	.
.	.	.	.	16b-/JJ	.
!	!	!	!	!LO:LB:g=original	!
=107	=107	=107	=107	=107	=107
*	*	*	*	*xywh-#5:423,3131,3381,400	*
4A-X\	.	4cc 4e-X/	.	16a-X\LL	.
.	.	.	.	16cc\	.
.	.	.	.	16ee-X\	.
.	.	.	.	16aa-yX\JJ	.
4r	.	4r	.	16ccc\LL	.
.	.	.	.	16aa-\	.
.	.	.	.	16ee-\	.
.	.	.	.	16cc\JJ	.
4A-\	.	4e- 4c/	.	16a-\LL	.
.	.	.	.	16cc\	.
.	.	.	.	16ee-\	.
.	.	.	.	16aa-\JJ	.
4r	.	4r	.	16ccc\LL	.
.	.	.	.	16aa-\	.
.	.	.	.	16ee-\	.
.	.	.	.	16cc\JJ	.
=108	=108	=108	=108	=108	=108
!	!LO:MO:mod=!null:null	!	!LO:MO:mod=!null:null	!	!LO:MO:mod=!null:null
!	!LO:DY:t=rinf	!	!LO:DY:t=rinf	!	!LO:DY:t=F
2AAn/	rfz	2e-X [2c/	rfz	(16f#X\LL	f
!	!	!	!	!LO:SIC:o=16an\:v	!
.	.	.	.	16an\)	.
!	!	!	!	!LO:SIC:o=(16cc\):v	!
.	.	.	.	(16cc\	.
.	.	.	.	16a\JJ)	.
.	.	.	.	(16ee-X\LL	.
.	.	.	.	16cc\)	.
.	.	.	.	(16aa\	.
.	.	.	.	16ff#yX\JJ)	.
4An\	.	4e- 4c/]	.	(16ccc\LL	.
.	.	.	.	16aa\)	.
.	.	.	.	(16ff#\	.
.	.	.	.	16aa\JJ)	.
4r	.	4r	.	(16cc\LL	.
.	.	.	.	16ee-\)	.
.	.	.	.	(16a\	.
.	.	.	.	16cc\JJ)	.
=109	=109	=109	=109	=109	=109
!!LO:MO:ori
!	!	!	!LO:DY:t=rinf	!	!
2AA/	.	2e-X [2c/	rfz	16f#X/LL	.
.	.	.	.	16a/	.
.	.	.	.	16cc/	.
.	.	.	.	16a/JJ	.
.	.	.	.	16ee-X\LL	.
.	.	.	.	16cc\	.
.	.	.	.	16aa\	.
.	.	.	.	16ff#yX\JJ	.
4A\	.	4e- 4c/]	.	16ccc\LL	.
.	.	.	.	16aa\	.
.	.	.	.	16ff#\	.
.	.	.	.	16aa\JJ	.
4r	.	4r	.	16cc\LL	.
.	.	.	.	16ee-\	.
.	.	.	.	16a\	.
.	.	.	.	16cc\JJ	.
!LO:LB:g=original	!	!	!	!LO:LB:g=original	!
!!LO:MO:end
!!LO:MO:mod
!! 2AA/	rfz	2e-X [2c/	rfz	16f#X/LL	.
!! .	.	.	.	16a/	.
!! .	.	.	.	16cc/	.
!! .	.	.	.	16a/JJ	.
!! .	.	.	.	16ee-X\LL	.
!! .	.	.	.	16cc\	.
!! .	.	.	.	16aa\	.
!! .	.	.	.	16ff#yX\JJ	.
!! 4A\	.	4e- 4c/]	.	16ccc\LL	.
!! .	.	.	.	16aa\	.
!! .	.	.	.	16ff#\	.
!! .	.	.	.	16aa\JJ	.
!! 4r	.	4r	.	16cc\LL	.
!! .	.	.	.	16ee-\	.
!! .	.	.	.	16a\	.
!! .	.	.	.	16cc\JJ	.
!! !LO:LB:g=original	!	!	!	!LO:LB:g=original	!
!!LO:MO:end
=110	=110	=110	=110	=110	=110
*xywh-#62:594,4020,3424,338	*	*	*	*xywh-#5:416,3393,3391,432	*
4BBn/	.	4d 4G/	.	(16fn\LL	.
.	.	.	.	16g\	.
.	.	.	.	16b\	.
.	.	.	.	16dd\JJ	.
4r	.	4r	.	16ff\LL	.
.	.	.	.	16gg\	.
.	.	.	.	16bb\	.
.	.	.	.	16ddd\JJ	.
4BB/	.	4d 4G/	.	16fff\LL	.
.	.	.	.	16ddd\	.
.	.	.	.	16bb\	.
.	.	.	.	16gg\JJ	.
4BB/	.	4d 4G/	.	16ff\LL	.
.	.	.	.	16dd\	.
.	.	.	.	16b\	.
.	.	.	.	16g\JJ)	.
!	!	!LO:LB:g=original	!	!	!
=111	=111	=111	=111	=111	=111
*	*	*xywh-#39:261,3327,3460,467	*	*	*
1BB;<	.	1d 1G;	.	1f;	.
=112	=112	=112	=112	=112	=112
!	!	!LO:MO:mod=!LO&colon;TX&colon;a&colon;i&colon;t=Dolce	!	!	!
!	!	!LO:TX:b:i:t=dol	!	!	!
4C/	.	(8ee\L	.	4.gg\	.
.	.	8dd\	.	.	.
8E/L	.	8ee\)	.	.	.
8C/J	.	8gg`\J	.	8ccc\	.
2GG/	.	4.ff\	.	16ccc\LL	.
.	.	.	.	16bb\	.
.	.	.	.	16ddd\	.
.	.	.	.	16bb\JJ	.
.	.	.	.	16fff\LL	.
.	.	.	.	16ddd\	.
.	.	8dd\	.	16bb\	.
.	.	.	.	16ff\JJ	.
=113	=113	=113	=113	=113	=113
4C/	.	(8ee\L	.	8ee\	.
.	.	8dd\	.	4gg\	.
8E/L	.	8ee\)	.	.	.
8C/J	.	8gg`\J	.	8ccc\	.
2GG/	.	4.ff\	.	16ccc\LL	.
.	.	.	.	16bb\	.
.	.	.	.	16ddd\	.
.	.	.	.	16bb\JJ	.
.	.	.	.	16fff\LL	.
.	.	.	.	16ddd\	.
.	.	8dd\	.	16bb\	.
.	.	.	.	16ff\JJ	.
=114	=114	=114	=114	=114	=114
4C/	.	4ee\	.	8ee\	.
.	.	.	.	4ccc\	.
4F\	.	8dd\L	.	.	.
.	.	8dd\J	.	16aa\LL	.
.	.	.	.	16ff\JJ	.
4G\	.	8cc\L	.	8ee\	.
.	.	8cc\	.	4gg\	.
4GG/	.	8b\	.	.	.
.	.	8b\J	.	16ff\LL	.
.	.	.	.	16dd\JJ	.
!	!	!	!	!LO:LB:g=original	!
=115	=115	=115	=115	=115	=115
*	*	*	*	*xywh-#5:404,3702,3419,394	*
4C/	.	4cc\	.	(16cc\LL	.
.	.	.	.	16ee\)	.
.	.	.	.	(16dd\	.
.	.	.	.	16ff\JJ)	.
4r	.	4r	.	(16ee\LL	.
.	.	.	.	16gg\)	.
.	.	.	.	(16ff\	.
.	.	.	.	16aa\JJ)	.
2r	.	2r	.	16gg\LL	.
.	.	.	.	16ee\	.
.	.	.	.	16eee\	.
.	.	.	.	16ccc\JJ	.
.	.	.	.	16ddd\LL	.
.	.	.	.	16bb\	.
.	.	.	.	16ccc\	.
.	.	.	.	16aa\JJ	.
=116	=116	=116	=116	=116	=116
2r	.	8c/L	.	16gg\LL	.
.	.	.	.	16ee\	.
.	.	8B/	.	16ff\	.
.	.	.	.	16aa\JJ	.
.	.	8c/	.	16gg\LL	.
.	.	.	.	16ee\	.
.	.	8B/J	.	16ff\	.
.	.	.	.	16aa\JJ	.
8r	.	8c/	.	16gg\LL	.
.	.	.	.	16ee\	.
8F\L	.	4cc\	.	16aa\	.
.	.	.	.	16ff\JJ	.
8G\	.	.	.	16gg\LL	.
.	.	.	.	16ee\	.
8GG/J	.	8b\	.	16ff\	.
.	.	.	.	16dd\JJ	.
!	!	!LO:LB:g=original	!	!	!
=117	=117	=117	=117	=117	=117
*	*	*xywh-#39:299,3676,3426,383	*	*	*
4C/	.	4cc\	.	16cc\LL	.
.	.	.	.	16ee\	.
.	.	.	.	16dd\	.
.	.	.	.	16ff\JJ	.
4r	.	4r	.	16ee\LL	.
.	.	.	.	16gg\	.
.	.	.	.	16ff\	.
.	.	.	.	16aa\JJ	.
2r	.	2r	.	16gg\LL	.
.	.	.	.	16ee\	.
.	.	.	.	16eee\	.
.	.	.	.	16ccc\JJ	.
.	.	.	.	16ddd\LL	.
.	.	.	.	16bb\	.
.	.	.	.	16ccc\	.
.	.	.	.	16aa\JJ	.
!	!	!	!	!LO:LB:g=original	!
=118	=118	=118	=118	=118	=118
*	*	*	*	*xywh-#5:404,4008,3403,419	*
2r	.	8c/L	.	16gg\LL	.
.	.	.	.	16ee\	.
.	.	8B/	.	16ff\	.
.	.	.	.	16aa\JJ	.
.	.	8c/	.	16gg\LL	.
.	.	.	.	16ee\	.
.	.	8B/J	.	16ff\	.
.	.	.	.	16aa\JJ	.
8r	.	8c/	.	16gg\LL	.
.	.	.	.	16ee\	.
8F\L	.	4cc\	.	16aa\	.
.	.	.	.	16ff\JJ	.
8G\	.	.	.	16gg\LL	.
.	.	.	.	16ee\	.
8GG/J	.	8b\	.	16ff\	.
.	.	.	.	16dd\JJ	.
=119	=119	=119	=119	=119	=119
4C/	.	4cc\	.	16cc\LL	.
.	.	.	.	16ee\	.
.	.	.	.	16dd\	.
.	.	.	.	16ff\JJ	.
4r	.	4r	.	16ee\LL	.
.	.	.	.	16gg\	.
.	.	.	.	16ff\	.
.	.	.	.	16aa\JJ	.
4C/	.	[2e/	.	16gg\LL	.
.	.	.	.	16bb-X\	.
.	.	.	.	16aa\	.
.	.	.	.	16ccc\JJ	.
4C/	.	.	.	16bb-\LL	.
.	.	.	.	16ddd\	.
.	.	.	.	16ccc\	.
.	.	.	.	16bb-\JJ	.
=120	=120	=120	=120	=120	=120
*	*	*	*	*^	*
*	*	*	*	*	*xywh-#5:404,4008,3403,419	*
2F\	.	4e/]	.	2aaT/	2gg\	.
.	.	8d/L	.	.	.	.
.	.	8c/J	.	.	.	.
4BB/	.	[2d/	.	2aa/	[2ffT\	.
8C/L	.	.	.	.	.	.
8D/J	.	.	.	.	.	.
=121	=121	=121	=121	=121	=121	=121
2E\	.	4d/]	.	2ggT/	2ff\]	.
.	.	8c/L	.	.	.	.
.	.	8B/J	.	.	.	.
4AA/	.	[2c/	.	2gg/	[2eet\	.
8BB/L	.	.	.	.	.	.
8C/J	.	.	.	.	.	.
!LO:LB:g=original	!	!	!	!	!	!
=122	=122	=122	=122	=122	=122	=122
*xywh-#62:594,4329,3398,403	*	*	*	*	*	*
2D\	.	4c/]	.	2ffT/	2ee\]	.
.	.	8B/L	.	.	.	.
.	.	8A/J	.	.	.	.
4GG/	.	2B/	.	2ff/	[2ddT\	.
8AA/L	.	.	.	.	.	.
8BB/J	.	.	.	.	.	.
=123	=123	=123	=123	=123	=123	=123
4C/	.	4A/	.	2eet/	2dd\]	.
8A\L	.	4r	.	.	.	.
8G#X\J	.	.	.	.	.	.
8A\L	.	2r	.	2ee/	2ccT\	.
8Gn\	.	.	.	.	.	.
8F\	.	.	.	.	.	.
8E\J	.	.	.	.	.	.
*	*	*	*	*v	*v	*
!	!	!LO:LB:g=original	!	!	!
=124	=124	=124	=124	=124	=124
*	*	*xywh-#39:306,4007,3426,383	*	*	*
8F/L	.	8r	.	4aa 4cc 4f\	.
8F/	.	8fL 8c/	.	.	.
!	!	!	!	!LO:MO:mod=!null:null	!
!	!	!	!	!LO:N:vis=4.	!
8C/	.	8f 8c/	.	[y4aa\	.
8AA/J	.	8fJ 8c/	.	.	.
4FF/	.	4f 4c/	.	16aayy\]	.
.	.	.	.	16gg#X\LL	.
.	.	.	.	16bbn\	.
.	.	.	.	16aa\JJ	.
4r	.	4r	.	16ggn\LL	.
.	.	.	.	16ff\	.
.	.	.	.	16ee\	.
.	.	.	.	16dd\JJ	.
!	!	!	!	!LO:LB:g=original	!
=125	=125	=125	=125	=125	=125
*	*	*	*	*xywh-#5:391,4317,3438,375	*
*	*	*	*	*8va	*
4GG/	.	4e 4c/	.	8gg\L	.
.	.	.	.	16aa\L	.
.	.	.	.	16bb\JJ	.
4r	.	4r	.	16ccc\LL	.
.	.	.	.	16ddd\	.
.	.	.	.	16eee\	.
.	.	.	.	16fff\JJ	.
2r	.	2r	.	2ggg\	.
=126	=126	=126	=126	=126	=126
8G\	.	8ee 8cc\	.	16gg\LL	.
.	.	.	.	16ccc\	.
8r	.	8r	.	16eee\	.
.	.	.	.	16ggg\JJ	.
8G\	.	8ee 8cc\	.	16gg\LL	.
.	.	.	.	16ccc\	.
8r	.	8r	.	16eee\	.
.	.	.	.	16ggg\JJ	.
4G\	.	4ee 4cc\	.	16gg\LL	.
.	.	.	.	16ccc\	.
.	.	.	.	16eee\	.
.	.	.	.	16ggg\JJ	.
4r	.	4r	.	16fff\LL	.
.	.	.	.	16eee\	.
.	.	.	.	16ddd\	.
.	.	.	.	16ccc\JJ	.
=127	=127	=127	=127	=127	=127
*tremolo	*	*	*	*	*
8G\L	.	8cc\L	.	1dddT	.
8G\	.	8b\	.	.	.
8G\	.	8cc\	.	.	.
8G\J	.	8dd\J	.	.	.
8GG/L	.	4.b\	.	.	.
8GG/	.	.	.	.	.
8GG/	.	.	.	.	.
8GG/J	.	8f/	.	.	.
*Xtremolo	*	*	*	*	*
=128	=128	=128	=128	=128	=128
(8CC/L	p	8e/L	.	8ccc\L	.
8C/	.	8g/	.	8ddd\	.
8E/	.	8cc/	.	8eee\	.
8C/J)	.	8dd/J	.	8fff\J	.
(8CC/L	.	4ee\	.	4.ggg\	.
8C/	.	.	.	.	.
8E/	.	(4g/	.	.	.
8C/J)	.	.	.	8eee\	.
!	!	!LO:LB:g=original	!	!	!
=129	=129	=129	=129	=129	=129
*	*	*xywh-#39:265,4322,3475,402	*	*	*
(8CC/L	.	4a/)	.	8fff\L	.
8C/	.	.	.	8eee\	.
8F/	.	(4ff\	.	8fff\	.
8C/J)	.	.	.	8aaa\J	.
(8CC/L	.	4ee\)	.	4.ggg\	.
8C/	.	.	.	.	.
8E/	.	(4g/	.	.	.
8C/J)	.	.	.	8eee\	.
=130	=130	=130	=130	=130	=130
(8CC/L	.	4a/)	.	8fff\L	.
8C/	.	.	.	8eee\	.
8F/	.	(4ff\	.	8fff\	.
8C/J)	.	.	.	8aaa\J	.
(8CC/L	.	4ee\)	.	8ggg\L	.
8C/	.	.	.	8cccc\	.
8E/	.	(4g/	.	8ggg\	.
8C/J)	.	.	.	8eee\J	.
!LO:LB:g=original	!	!	!	!LO:LB:g=original	!
=131	=131	=131	=131	=131	=131
*xywh-#62:580,4614,3332,482	*	*	*	*xywh-#5:388,4628,3526,482	*
(8CC/L	.	4a/)	.	8fff\L	.
8C/	.	.	.	8eee\	.
!	!	!LO:SIC:o=4ff\:v	!	!	!
8F/	.	(4ff\	.	8fff\	.
8C/J)	.	.	.	8aaa\J	.
!	!	!LO:SIC:o=4ee\:v	!	!	!
(8CC/L	.	4ee\)	.	4.ggg\	.
8C/	.	.	.	.	.
8E/	.	4r	.	.	.
8C/J)	.	.	.	8eee\	.
=132	=132	=132	=132	=132	=132
4r	.	4r	.	8ddd\L	.
.	.	.	.	8ccc#X\	.
(4B\	.	4g/	.	8ddd\	.
.	.	.	.	8fff\J	.
4c\)	.	4g/	.	8eee\L	.
.	.	.	.	8ggg\	.
4r	.	4r	.	8cccn\	.
.	.	.	.	8eee\J	.
=133	=133	=133	=133	=133	=133
4r	.	4r	.	8ddd\L	.
.	.	.	.	8fff\	.
4G\	p	4f/	p	8bb\	.
.	.	.	.	8ddd\J	.
(8C/L	.	(8e/L	.	2ccc\	.
8BB/	.	8d/	.	.	.
8C/)	.	8e/)	.	.	.
8CC`/J	.	8g`/J	.	.	.
*	*	*	*	*X8va	*
=134	=134	=134	=134	=134	=134
!	!	!	!	!LO:MO:mod=!null:null	!
!	!	!	!	!LO:TX:a:t=loco	!
(8C/L	.	(8e/L	.	1ccc	<[
8BB/	.	8d/	.	.	.
8C/)	.	8e/)	.	.	.
!	!LO:MO:mod=!null:null	!	!LO:MO:mod=!null:null	!	!
!	!LO:HP:b:t=cres	!	!LO:HP:b:t=cres	!	!
8CC`/J	<	8g`/J	<	.	.
(8C/L	.	8e/L	.	.	.
8BB/	.	8d/	.	.	.
8C/)	.	8e/	.	.	.
8CC`/J	.	8g`/J	.	.	.
!	!	!LO:LB:g=original	!	!	!
=135	=135	=135	=135	=135	=135
*	*	*xywh-#39:314,4683,3057,448	*	*	*
!	!LO:MO:mod=!null:null	!	!LO:MO:mod=!null:null	!	!LO:MO:mod=!null:null
!	!LO:DY:t=F	!	!LO:DY:t=F	!	!LO:DY:t=F
4C/	f	4e 4G/	f	8ccc\L	f
.	.	.	.	16eee\L	.
.	.	.	.	16ddd\JJ	.
4r	.	4r	.	16ccc\LL	.
.	.	.	.	16bb\	.
.	.	.	.	16aa\	.
.	.	.	.	16gg\JJ	.
2r	.	2r	.	16ff\LL	.
.	.	.	.	16ee\	.
.	.	.	.	16dd\	.
.	.	.	.	16cc\JJ	.
.	.	.	.	16b/LL	.
.	.	.	.	16a/	.
.	.	.	.	16g/	.
.	.	.	.	16f/JJ	.
=136	=136	=136	=136	=136	=136
4r	.	4r	.	4e/	.
!	!LO:MO:mod=!null:null	!	!LO:MO:mod=!null:null	!	!
!	!LO:DY:t=F	!	!LO:DY:t=F	!	!
8A\L	f	8e/L	f	4ccc 4ee\	.
8A\J	.	8e/J	.	.	.
8F\L	.	8d/L	.	4ddd 4ff\	.
8F\	.	8d/	.	.	.
8G\	.	8f/	.	4bb 4dd\	.
8G\J	.	8f/J	.	.	.
=137	=137	=137	=137	=137	=137
(8C/L	.	(8e/L	.	4ccc 4ee\	.
8BB/	.	8d/	.	.	.
8C/)	.	8e/)	.	4r	.
8CC`/J	.	8g`/J	.	.	.
!	!	!LO:SIC:o=8e/L:v	!	!	!
(8C/L	.	(8e/L	.	4g 4c/	.
8BB/	.	8d/	.	.	.
!	!	!LO:SIC:o=8e/:v	!	!	!
8C/)	.	8e/)	.	4ccc 4ee 4g\	.
!	!	!LO:SIC:o=8g/J:v	!	!	!
8CC`/J	.	8g`/J	.	.	.
=138	=138	=138	=138	=138	=138
2C/	.	2e 2G/	.	2c/	.
2r	.	2r	.	2r	.
==	==	==	==	==	==
*-	*-	*-	*-	*-	*-
!!!system-decoration: [(s1,s2,s3)]
!!!RDF**kern: > = above
!!!RDF**kern: < = below
!!!filter-modern: sic -sq | shed -e "s/LO:DY:(a|b|rj)/LO:dy:$1/L" | shed -e "s/TX(.*):t=P:/tx$1:t=P:/LG" | modori -m | autostem -r | shed -e "s/yy//" | shed -k -e "s/\(y([^y])/($1/" | shed -e "s/-//B" | shed -k -e "s/[<>]//g" | shed -k -e "s/r[a-gA-G]+/r/D"
!!!ENC: Mateusz Solarz
!!!END: 2022-05-19
!!!EED: Natalia Wrzos
!!!EEV: 2022-06-14
!!!EED-modern: Antoni Szymański
!!!END-modern: 2022-08-12
!!!ENC-iiif: Mateusz Mrugas
!!!END-iiif: 2022-09-07
